X:1
T:Every Day I Have The Blues
C:1947 - J. L. Chatman (aka Memphis Slim)
Z:www.realbook.site
L:1/8
M:4/4
I:linebreak $
K:Bb
V:1 treble nm=" " snm=" "
V:1
 (3z2 C2 _D2 |:"Bb7" B,2 z2 z4 | z _D- (3DDE EDB,B,- | B,4 z4 | z4 z B3- |$ %5
"Eb7" B2 _dB (3E_DB,- B,2 | z B3- BB F/E/_D/B,/ |"Bb7" !~(!=D2 !~)!z2 z4 | z4 z2 CC |$ %9
"F7" (3CCC B,B,- B,2 z2 |"Eb7" z B3- B_AE_D |"Bb7" (3=DB,B,- B,2 z4 | z8 :| %13

